X:9
T:Gigue
M:6/8
L:1/8
K:C
%%continueall 1
%%staves [1 2]
V:1
Sg a2!!b | c'2e (fe)!!d | ecg (ag)f | ggc' !!b2g | c'2b !!a2g | !!^f2g a2b | c'ba bbc' | (d'c')b !!a2g- |1 gdB G3 | z2S :|2 g2d !!e2f | 
gag fef | !!eef gfe | !!dde fed | edc !!B2A | A2c d2e | efe dec |
g3- g3- | g2g gfe | !!dBc dde | fed ece | uf2g a2g | !!f2e !!dgd | dcd ede | fef g3- | g(a/g/)(f/e/) !!d2c | c2 :|2 c3- c3 |]
V:2
z z2z | z2g a2!!b | c'2c (fe)d | (ef)e !!d3 | z2g c'2b | !!a2g !!^f2g | (ag)^f gga | (ba)g !!^f2g- |
g3 gdB | c2 :| g3 z2z | z2G A2B | ccd edc | !!BBc dcB | cBA !!^G2A | A3 z2z | z2z z2z |
z2G A2B | cde edc | !!BGA BBc | dcB cGc | d2e uf2e | !!d2c !!BGB | BAB cBc | dcd e3- | e(f/e/)(d/c/) !!B2c- | c2 :| c3- c3 |]
%%newpage
%%begintext
